!!!OTL: R&auml;tsellied (2-92) S. 268
!!!id: P0963
**kern
*clefG2
*k[f#]
*G:
{8d
8d
8g
8g
8g
=1
8g
8b
8b
8b
8b
8dd
8cc
8b
=2
4b
8a}
=3
{8g
4f#
8a
8a
=4
4a
8d
8d
8e
8e
8d
8c
=5
4d}
8r
=6
{8d
8d
8d
8e
8d
=7
4c
4c
4e
8f#
8e
=8
4d}
8r
=9
{8a
8a
8a
8a
8a
=10
4d
8g
8g
8a
16b
16a
8g
8f#
=11
4g}
8r
=12
{8d
4d
8g
8g
=13
4g
8b
8b
8b
8dd
8cc
8b
=14
4b
8a}
=15
{8d
4e
8a
8a
=16
4g
8d
8d
4c
4e
=17
4d}
8r
=18
{8d
8d
8d
8e
8d
=19
8c
8c
8e
8e
8g
8g
8f#
8e
=20
4d}
8r
=21
{8a
8b
8b
8a
8a
=22
4d
8g
8g
8a
8a
8g
8f#
=23
4g}
8r
==
*-
!!!minrhy: 16
!!!meters: 4/4 ]  ZZ[8
!!!cut: R&auml;tsellied (2-92) S. 268
!!!reg: Lothringen
!!!trd: PINCK, Louis: Verklingende Weisen, Bd 2, Metz 1928
!!!rhy1: X_X_X_X_X_  X_X_X_X_X_X_X_X_  X__X_   (x2)
!!!rhy2: X_X__X_X_  X__X_X_X_X_X_X_  X__0
!!!key: P0963  16  G 4/4 ]  ZZ[8
!!!mod: HEPTATONIK IONISCH]  AMBITUS[9
!!!kad: 2-5-512-5-51
!!!akz: -5133_-72-6-5_-5-4-6-5_2-521_-5133_-61-4-5_-5-41-5_3-521_
!!!fot: 'a__b__c__d__av_e__cw_dw_
!!!for: 'a__b__c__d__b__e__a__bv_
!!!fok: '^a_\__^__Sd_^a_^__^__Vd_
!! PHRAS[AUFTAKTIG]
!!!fkt: ???, R&auml;tsel
!! LOTH VKL
!! PR[30] 2K[5] 2G[28] 3K[2] 3G[2] 4A[7] 4Ü[0] 5A[0] 6K[0] 6G[0]
!! 7K[0] 7G[0] 8A[0] MEHR[0] SI[44] ABS[43] SR[33] SP[12]
!! ST[12] 2k[0] 2g[14] 3k[7] 3g[0] 4d[0] 4ü[0] 5d[0] 6k[0] 6g[5]
!! 7k[0] 7g[0] 8d[0] mehr[0] si[26] dm[+18] sr[14] sp[12]
!! 1F[93] 2F[7] 3F[0] 4F[0] LF[0] 2P[0] 3P[0] 4P[0] TRI[0] DF[2] AB[45]
!! TF[0] U3K[0] U3[0] U4[0] U4Ü[0] U5[7] U6K[0] U6[0] U7K[0] U7[0]
!! N1[9] N2K[0] N2[9] N3K[0] N3[25] N4[11] N4Ü[0] N5[27] N6K[0] N6[11]
!!!n7k: 0] N7[0] O1[0] O2K[0] O2[0] O3K[0] O3[0] HÖ[0
!!!RNB: symbol: &auml;      = a umlaut  (UTF-8: Å„)
